X: 262
T:Grappa Groove
M:6/8
L:1/8
C:Niall Vallely
R:jig
D:The Irish Folk Festival 2000: The Lighthouse of Tradition
Z:Devin McCabe
K:E
BGE EGB|~e2g fec|a2g gfe|~f2g fec|
!BGE EGB|~e2g fec|gag gfb|1Bcd ~e2c:|2Bcd e2f||
!g2g bge|a2g gfe|~f2f fec-|cag fef|
!~g3 bge|a2g gef|~f3 fef|ged e2f|
!g2g bge|a2g gfe|~f2f fec-|cag fef|
!gec ~B3|Beg fec|gag gfb|Bcd ~e2c||
